dist/assets/img/main/trust/bk.svg

<svg width="1037" height="355" fill="none" xmlns="http://www.w3.org/2000/svg"><path d="M176.32 240.294c18.66-24.961 37.053-49.676 55.606-74.27 2.085-2.765 2.088-4.519-.014-7.276-14.435-18.939-28.66-38.038-43.009-57.042-2.155-2.854-3.671-5.573-.351-9.603 1.658 1.657 3.402 3.035 4.7 4.75 15.476 20.452 30.853 40.977 46.346 61.414 2.19 2.889 2.093 5.177-.15 7.996-4.236 5.322-8.172 10.883-12.39 16.557l10.783 14.694-117.2 156.852c-14.863-19.88-29.422-39.339-43.966-58.809-23.62-31.621-47.184-63.283-70.924-94.814-2.06-2.736-1.834-4.406.158-6.8 2.864-3.442 5.409-7.15 8.353-11.098-4.125-5.475-8.098-10.975-12.327-16.271-2.334-2.923-2.426-5.234-.085-8.343C40.314 107.145 78.67 55.978 117.075 4.847c.983-1.31 2.22-2.428 3.82-4.155l53.061 70.436c-4.045 3.286-6.446 2.095-8.795-1.07-13.499-18.183-27.077-36.308-40.637-54.447-1.184-1.584-2.426-3.126-3.957-5.093L6.718 162.513l113.931 151.845c18.711-24.897 37.081-49.34 55.671-74.064zm838.83-5.552v-63.754c-.28-.087-.56-.173-.85-.26-2.75 5.005-5.53 9.995-8.26 15.017-8.797 16.227-17.636 32.433-26.302 48.731-1.439 2.705-3.054 3.778-6.166 3.655-6.622-.262-13.261-.08-20.192-.08v-98.734h21.317v68.405c1.464-2.182 2.176-3.081 2.717-4.073 11.072-20.294 22.186-40.565 33.106-60.94 1.45-2.707 2.94-3.844 6.07-3.722 6.61.256 13.24.078 20.11.078v98.962c-6.5 0-13.08.079-19.66-.123-.65-.02-1.26-1.749-1.89-3.162z" fill="#0E4275"/><path d="M312.924 219v-79.637h72.851v17.582h-51.132v17.877c4.189 0 8.444-.118 12.689.026 7.799.265 15.727-.1 23.362 1.203 15.998 2.73 24.777 14.255 24.592 30.811-.181 16.321-9.094 27.393-24.938 30.064-6.181 1.042-12.578 1.002-18.881 1.075-12.32.143-24.642.021-36.964-.003-.31-.001-.62-.148-1.579-.392V219zm48.077-26.951h-26.376v28.052c9.005 0 17.646.3 26.256-.082 9.147-.405 13.405-5.428 13.216-14.585-.154-7.466-3.399-10.991-13.096-13.385z" fill="#0C4174"/><path d="M845.838 163.86c10.74-21.263 31.198-30.691 55.362-25.806 20.604 4.164 35.495 22.258 36.853 44.717.978 16.179-1.646 31.422-13.372 43.483-14.056 14.458-31.566 17.025-50.237 11.963-18.163-4.923-28.347-17.9-32.18-35.861-2.765-12.956-1.979-25.813 3.574-38.496zm17.223 18.102c-.642 9.238-.33 18.36 4.025 26.819 4.722 9.173 12.444 13.605 22.669 13.642 10.08.037 17.908-4.253 22.142-13.448 6.25-13.571 6.433-27.572-.115-41.042-7.199-14.809-27.629-17.878-39.566-6.447-5.591 5.353-7.663 12.304-9.155 20.476z" fill="#0D4175"/><path d="M432.049 217.042v20.698h-20.977v-98.385h20.813v41.063c6.642-6.961 12.332-12.9 17.993-18.867 6.191-6.525 12.236-13.196 18.617-19.528 1.551-1.539 4.138-2.723 6.306-2.823 7.426-.343 14.877-.132 23.631-.132L458.78 177.17l42.994 60.809c-9.386 0-17.899.132-26.397-.157-1.132-.039-2.361-2.093-3.256-3.411-8.419-12.395-16.77-24.836-25.156-37.254-.72-1.067-1.544-2.065-2.36-3.147-6.537 6.399-15.265 11.294-12.556 23.032z" fill="#0C4174"/><path d="M643.447 228.444c-15.279 13.737-32.66 14.939-50.641 8.54-17.853-6.353-26.225-20.859-28.646-38.828-2.415-17.918.862-34.563 14.054-48.031 17.984-18.359 51.861-17.551 68.105 1.499 4.91 5.758 7.591 12.415 8.387 20.624-6.592 0-13.029.093-19.457-.114-.834-.026-2.012-1.46-2.364-2.474-3.148-9.08-9.719-13.692-19.022-14.438-9.739-.781-18.024 2.499-22.864 11.2-8.006 14.393-8.058 29.363-.424 43.9 4.745 9.038 14.839 13.177 25.128 11.528 9.33-1.496 15.087-7.451 17.468-18.046.254-1.131.592-2.243.947-3.574h21.188c-.882 10.706-4.198 20.16-11.859 28.214z" fill="#0D4175"/><path d="M773.609 237.602c-7.002.331-13.652.331-20.647.331v-99.418c17.983.59 36.018-.017 53.724 2.109 16.818 2.02 25.623 15.019 24.772 32.077-.834 16.72-11.236 27.909-28.238 29.244-9.418.739-18.943.132-29.259.132 0 12.343 0 23.769-.352 35.525zm.662-79.713v27.182c1.414.101 2.236.21 3.059.21 6.146.001 12.297.134 18.436-.07 9.608-.319 14.358-4.799 14.529-13.355.179-9.025-4.78-14.283-14.467-14.691-6.956-.293-13.937.008-21.557.724z" fill="#0D4174"/><path d="M134.355 118.492c-.293-7.809 1.917-14.726 6.999-20.774 1.718-2.045 2.893-4.546 3.861-7.27-12.166 10.024-27.108 10.657-41.325 13.547-9.561 1.944-18.317 5.326-22.996 14.836-1.144 2.326-1.87 4.858-2.788 7.295l-1.355-.183c.266-2.222.245-4.524.841-6.654 5.241-18.71 18.136-28.95 36.784-32.203 8.339-1.454 16.898-1.621 25.272-2.921 4.472-.694 8.762-2.555 14.524-4.313v42.907l2.064.385c.677-1.119 1.608-2.158 1.992-3.37 4.311-13.599 8.495-27.24 12.844-40.826.506-1.58 1.463-3.515 2.786-4.247 5.5-3.04 11.22-5.683 16.883-8.484.171.16.609.403.581.566-4.143 24.178-10.94 46.752-34.213 60.237-2.098 1.216-2.198 5.88-3.47 9.67 2.665.48 4.232 1.008 5.797 1.003 8.216-.026 15.117 3.216 21.575 8.006 3.189 2.366 6.71 4.35 10.262 6.148 6.585 3.333 13.445 4.44 20.627.434l.216 1.349c-.702.822-1.317 1.742-2.12 2.45-6.538 5.768-14.181 9.28-22.754 10.634-8.709 1.375-16.471-.537-23.002-6.869-3.644-3.533-7.652-6.69-11.993-10.447-1.736 2.896-3.123 4.935-4.234 7.114-4.373 8.58-4.395 8.622-15.035 6.6l.891-17.514-6.523-2.769c2.954-2.324 5.373-4.227 7.723-6.485-.069-.354-.1-.315.2-.084.775.061 1.249-.11 2.115-.258 2.398-1.306 5.837-2.375 6.134-4.013.804-4.446.276-9.133.276-14.228l-9.439.731z" fill="#0F4376"/><path d="M676.996 157.719h-16.758v-18.334h80.442v18.133h-29.202v80.266h-21.803v-80.065h-12.679z" fill="#0D4174"/><path d="M135.024 135.984c-.205-.233-.493-.694-.657-.653-21.885 5.451-44.528 8.184-65.174 18.068a66.632 66.632 0 00-8.218 4.692c-13.6 9.089-17.194 21.315-10.68 36.388 1.612 3.728 3.579 7.304 4.852 11.184-9.16-7.868-14.218-17.678-12.66-29.888 2.206-17.273 11.732-30.024 27.627-36.326 14.292-5.666 29.498-9.049 44.336-13.316 6.225-1.791 12.542-3.266 19.601-4.978 3.019-.518 5.255-.943 7.869-1.439 0 2.798-.208 5.242.046 7.637.423 3.985-.8 6.591-5.423 7.275-.779.517-1.177.959-1.574 1.401 0 0 .031-.039.055-.045z" fill="#147"/><path d="M132.064 174.005l-12.583-8.206c5.7-.184 12.361-1.093 18.872-.461 13.205 1.282 19.264 11.617 14.626 24.108-3.246 8.743-9.084 15.594-17.027 20.289-19.743 11.668-41.635 17.219-63.69 22.203-.23-.519-.462-1.038-.694-1.557 1.96-.833 3.867-2.216 5.889-2.413 16.562-1.608 31.39-7.412 43.999-18.288 9.847-8.494 14.707-19.156 11.945-32.54-.42-.111-.378-.088-.098-.377-.248-1.135-.776-1.981-1.299-2.798.004.029.06.04.06.04z" fill="#124577"/><path d="M91.353 163.743c4.394-4.993 8.612-9.645 12.83-14.296l1.708 1.235c1.619 17.824 2.715 35.621-4.69 52.72-4.661 10.764-13.289 17.387-23.682 22.297 10.287-16.243 11.102-34.54 12.358-52.75.206-2.97.856-5.91 1.476-9.206z" fill="#0F4376"/><path d="M508.884 191.918c13.809-.275 27.269-.275 41.013-.275v17.2h-41.361c0-5.53 0-11.09.348-16.925z" fill="#134678"/><path d="M1016.31 121.142c-2.18 5.608-6.2 8.548-11.44 10.071-6.573 1.911-13.163 1.934-19.7-.058-8.618-2.624-12.727-8.778-12.248-18.395 3.743-.547 6.658-.995 9.261 3.558 4.287 7.497 21.607 7.45 25.947-.09 2.66-4.621 5.64-4.017 10.01-3.314-.58 2.767-1.13 5.321-1.83 8.228zm-883.33 55.864c-4.287 8.273-11.879 11.779-20.358 13.93-1.576.4-3.254.398-5.852-.385.993-.996 1.858-2.66 3.001-2.88 8.072-1.555 14.618-5.18 18.913-12.456.328-.556 1.88-.389 3.122-.884.259-.326.202-.337-.174-.121.212 1.092.802 1.967 1.392 2.842 0 0-.042-.023-.044-.046z" fill="#144779"/></svg>

<svg width="1037" height="355" viewBox="0 0 1037 355" fill="none" xmlns="http://www.w3.org/2000/svg">
<path d="M176.32 240.294C194.98 215.333 213.373 190.618 231.926 166.024C234.011 163.259 234.014 161.505 231.912 158.748C217.477 139.809 203.252 120.71 188.903 101.706C186.748 98.852 185.232 96.1326 188.552 92.1035C190.21 93.7597 191.954 95.1378 193.252 96.8533C208.728 117.305 224.105 137.83 239.598 158.267C241.788 161.156 241.691 163.444 239.448 166.263C235.212 171.585 231.276 177.146 227.058 182.82C230.679 187.755 234.204 192.558 237.841 197.514C198.762 249.815 159.807 301.949 120.641 354.366C105.778 334.486 91.2192 315.027 76.6755 295.557C53.0555 263.936 29.4905 232.274 5.75149 200.743C3.69193 198.007 3.91711 196.337 5.90901 193.943C8.77278 190.501 11.3178 186.793 14.2623 182.845C10.1369 177.37 6.16387 171.87 1.93489 166.574C-0.398618 163.651 -0.491488 161.34 1.84988 158.231C40.3136 107.145 78.6709 55.9784 117.075 4.84701C118.058 3.53794 119.295 2.41946 120.895 0.692383C138.702 24.3306 156.272 47.6538 173.956 71.1284C169.911 74.414 167.51 73.223 165.161 70.0586C151.662 51.8747 138.084 33.75 124.524 15.6112C123.34 14.0268 122.098 12.4854 120.567 10.5184C82.5239 61.3077 44.7331 111.761 6.71796 162.513C44.6262 213.037 82.3935 263.372 120.649 314.358C139.36 289.461 157.73 265.018 176.32 240.294Z" fill="#0E4275"/>
<path d="M1015.15 234.742C1015.15 213.172 1015.15 192.08 1015.15 170.988C1014.87 170.901 1014.59 170.815 1014.3 170.728C1011.55 175.733 1008.77 180.723 1006.04 185.745C997.243 201.972 988.404 218.178 979.738 234.476C978.299 237.181 976.684 238.254 973.572 238.131C966.95 237.869 960.311 238.051 953.38 238.051C953.38 204.967 953.38 172.269 953.38 139.317C960.481 139.317 967.396 139.317 974.697 139.317C974.697 161.658 974.697 183.907 974.697 207.722C976.161 205.54 976.873 204.641 977.414 203.649C988.486 183.355 999.6 163.084 1010.52 142.709C1011.97 140.002 1013.46 138.865 1016.59 138.987C1023.2 139.243 1029.83 139.065 1036.7 139.065C1036.7 172.104 1036.7 204.681 1036.7 238.027C1030.2 238.027 1023.62 238.106 1017.04 237.904C1016.39 237.884 1015.78 236.155 1015.15 234.742Z" fill="#0E4275"/>
<path d="M312.924 219C312.924 192.218 312.924 165.937 312.924 139.363C337.314 139.363 361.371 139.363 385.775 139.363C385.775 145.068 385.775 150.784 385.775 156.945C368.848 156.945 351.938 156.945 334.643 156.945C334.643 162.934 334.643 168.496 334.643 174.822C338.832 174.822 343.087 174.704 347.332 174.848C355.131 175.113 363.059 174.748 370.694 176.051C386.692 178.781 395.471 190.306 395.286 206.862C395.105 223.183 386.192 234.255 370.348 236.926C364.167 237.968 357.77 237.928 351.467 238.001C339.147 238.144 326.825 238.022 314.503 237.998C314.193 237.997 313.883 237.85 312.924 237.606C312.924 231.687 312.924 225.593 312.924 219ZM361.001 192.049C352.243 192.049 343.484 192.049 334.625 192.049C334.625 201.594 334.625 210.773 334.625 220.101C343.63 220.101 352.271 220.401 360.881 220.019C370.028 219.614 374.286 214.591 374.097 205.434C373.943 197.968 370.698 194.443 361.001 192.049Z" fill="#0C4174"/>
<path d="M845.838 163.86C856.578 142.597 877.036 133.169 901.2 138.054C921.804 142.218 936.695 160.312 938.053 182.771C939.031 198.95 936.407 214.193 924.681 226.254C910.625 240.712 893.115 243.279 874.444 238.217C856.281 233.294 846.097 220.317 842.264 202.356C839.499 189.4 840.285 176.543 845.838 163.86ZM863.061 181.962C862.419 191.2 862.731 200.322 867.086 208.781C871.808 217.954 879.53 222.386 889.755 222.423C899.835 222.46 907.663 218.17 911.897 208.975C918.147 195.404 918.33 181.403 911.782 167.933C904.583 153.124 884.153 150.055 872.216 161.486C866.625 166.839 864.553 173.79 863.061 181.962Z" fill="#0D4175"/>
<path d="M432.049 217.042C432.049 224.169 432.049 230.803 432.049 237.74C424.941 237.74 418.195 237.74 411.072 237.74C411.072 205.055 411.072 172.35 411.072 139.355C417.842 139.355 424.594 139.355 431.885 139.355C431.885 152.582 431.885 165.788 431.885 180.418C438.527 173.457 444.217 167.518 449.878 161.551C456.069 155.026 462.114 148.355 468.495 142.023C470.046 140.484 472.633 139.3 474.801 139.2C482.227 138.857 489.678 139.068 498.432 139.068C484.685 152.278 471.795 164.663 458.78 177.17C473.479 197.96 487.282 217.482 501.774 237.979C492.388 237.979 483.875 238.111 475.377 237.822C474.245 237.783 473.016 235.729 472.121 234.411C463.702 222.016 455.351 209.575 446.965 197.157C446.245 196.09 445.421 195.092 444.605 194.01C438.068 200.409 429.34 205.304 432.049 217.042Z" fill="#0C4174"/>
<path d="M643.447 228.444C628.168 242.181 610.787 243.383 592.806 236.984C574.953 230.631 566.581 216.125 564.16 198.156C561.745 180.238 565.022 163.593 578.214 150.125C596.198 131.766 630.075 132.574 646.319 151.624C651.229 157.382 653.91 164.039 654.706 172.248C648.114 172.248 641.677 172.341 635.249 172.134C634.415 172.108 633.237 170.674 632.885 169.66C629.737 160.58 623.166 155.968 613.863 155.222C604.124 154.441 595.839 157.721 590.999 166.422C582.993 180.815 582.941 195.785 590.575 210.322C595.32 219.36 605.414 223.499 615.703 221.85C625.033 220.354 630.79 214.399 633.171 203.804C633.425 202.673 633.763 201.561 634.118 200.23C641.073 200.23 647.994 200.23 655.306 200.23C654.424 210.936 651.108 220.39 643.447 228.444Z" fill="#0D4175"/>
<path d="M773.609 237.602C766.607 237.933 759.957 237.933 752.962 237.933C752.962 205.063 752.962 172.344 752.962 138.515C770.945 139.105 788.98 138.498 806.686 140.624C823.504 142.644 832.309 155.643 831.458 172.701C830.624 189.421 820.222 200.61 803.22 201.945C793.802 202.684 784.277 202.077 773.961 202.077C773.961 214.42 773.961 225.846 773.609 237.602ZM774.271 157.889C774.271 166.938 774.271 175.987 774.271 185.071C775.685 185.172 776.507 185.281 777.33 185.281C783.476 185.282 789.627 185.415 795.766 185.211C805.374 184.892 810.124 180.412 810.295 171.856C810.474 162.831 805.515 157.573 795.828 157.165C788.872 156.872 781.891 157.173 774.271 157.889Z" fill="#0D4174"/>
<path d="M134.355 118.492C134.062 110.683 136.272 103.766 141.354 97.7177C143.072 95.6729 144.247 93.1718 145.215 90.4472C133.049 100.472 118.107 101.105 103.89 103.995C94.3287 105.939 85.5728 109.321 80.8943 118.831C79.7499 121.157 79.0239 123.689 78.1055 126.126C77.654 126.065 77.2025 126.004 76.751 125.943C77.0166 123.721 76.9961 121.419 77.5925 119.289C82.8334 100.579 95.7284 90.3382 114.376 87.0862C122.715 85.6318 131.274 85.4646 139.648 84.165C144.12 83.471 148.41 81.6105 154.172 79.8522C154.172 94.4442 154.172 108.602 154.172 122.759C154.86 122.887 155.548 123.016 156.236 123.144C156.913 122.025 157.844 120.986 158.228 119.774C162.539 106.175 166.723 92.5347 171.072 78.9476C171.578 77.3678 172.535 75.4325 173.858 74.7013C179.358 71.6605 185.078 69.0178 190.741 66.217C190.912 66.3765 191.35 66.6198 191.322 66.7832C187.179 90.9608 180.382 113.535 157.109 127.02C155.011 128.236 154.911 132.9 153.639 136.69C156.304 137.17 157.871 137.698 159.436 137.693C167.652 137.667 174.553 140.909 181.011 145.699C184.2 148.065 187.721 150.049 191.273 151.847C197.858 155.18 204.718 156.287 211.9 152.281C211.972 152.731 212.044 153.181 212.116 153.63C211.414 154.452 210.799 155.372 209.996 156.08C203.458 161.848 195.815 165.36 187.242 166.714C178.533 168.089 170.771 166.177 164.24 159.845C160.596 156.312 156.588 153.155 152.247 149.398C150.511 152.294 149.124 154.333 148.013 156.512C143.64 165.092 143.618 165.134 132.978 163.112C133.271 157.357 133.57 151.481 133.869 145.598C131.714 144.683 129.794 143.868 127.346 142.829C130.3 140.505 132.719 138.602 135.069 136.344C135 135.99 134.969 136.029 135.269 136.26C136.044 136.321 136.518 136.15 137.384 136.002C139.782 134.696 143.221 133.627 143.518 131.989C144.322 127.543 143.794 122.856 143.794 117.761C140.41 118.023 137.383 118.258 134.355 118.492Z" fill="#0F4376"/>
<path d="M676.996 157.719C671.196 157.719 665.894 157.719 660.238 157.719C660.238 151.488 660.238 145.598 660.238 139.385C686.885 139.385 713.603 139.385 740.68 139.385C740.68 145.186 740.68 151.09 740.68 157.518C731.241 157.518 721.67 157.518 711.478 157.518C711.478 184.524 711.478 211.025 711.478 237.784C703.932 237.784 697.008 237.784 689.675 237.784C689.675 211.299 689.675 184.877 689.675 157.719C685.355 157.719 681.425 157.719 676.996 157.719Z" fill="#0D4174"/>
<path d="M135.024 135.984C134.819 135.751 134.531 135.29 134.367 135.331C112.482 140.782 89.8385 143.515 69.1926 153.399C66.3534 154.758 63.5921 156.342 60.9745 158.091C47.3747 167.18 43.7807 179.406 50.2955 194.479C51.9071 198.207 53.8736 201.783 55.1465 205.663C45.9876 197.795 40.9289 187.985 42.4877 175.775C44.6926 158.502 54.2189 145.751 70.1135 139.449C84.4065 133.783 99.6117 130.4 114.45 126.133C120.675 124.342 126.992 122.867 134.051 121.155C137.07 120.637 139.306 120.212 141.92 119.716C141.92 122.514 141.712 124.958 141.966 127.353C142.389 131.338 141.166 133.944 136.543 134.628C135.764 135.145 135.366 135.587 134.969 136.029C134.969 136.029 135 135.99 135.024 135.984Z" fill="#114477"/>
<path d="M132.064 174.005C127.816 171.235 123.568 168.464 119.481 165.799C125.181 165.615 131.842 164.706 138.353 165.338C151.558 166.62 157.617 176.955 152.979 189.446C149.733 198.189 143.895 205.04 135.952 209.735C116.209 221.403 94.3166 226.954 72.2628 231.938C72.0313 231.419 71.7998 230.9 71.5684 230.381C73.5283 229.548 75.4349 228.165 77.4567 227.968C94.0193 226.36 108.847 220.556 121.456 209.68C131.303 201.186 136.163 190.524 133.401 177.14C132.981 177.029 133.023 177.052 133.303 176.763C133.055 175.628 132.527 174.782 132.004 173.965C132.008 173.994 132.064 174.005 132.064 174.005Z" fill="#124577"/>
<path d="M91.3532 163.743C95.7474 158.75 99.9653 154.098 104.183 149.447C104.752 149.858 105.321 150.27 105.891 150.682C107.51 168.506 108.606 186.303 101.201 203.402C96.5396 214.166 87.912 220.789 77.5186 225.699C87.8063 209.456 88.6205 191.159 89.8775 172.949C90.0826 169.979 90.7327 167.039 91.3532 163.743Z" fill="#0F4376"/>
<path d="M508.884 191.918C522.693 191.643 536.153 191.643 549.897 191.643C549.897 197.366 549.897 202.968 549.897 208.843C536.278 208.843 522.682 208.843 508.536 208.843C508.536 203.313 508.536 197.753 508.884 191.918Z" fill="#134678"/>
<path d="M1016.31 121.142C1014.13 126.75 1010.11 129.69 1004.87 131.213C998.297 133.124 991.707 133.147 985.17 131.155C976.552 128.531 972.443 122.377 972.922 112.76C976.665 112.213 979.58 111.765 982.183 116.318C986.47 123.815 1003.79 123.768 1008.13 116.228C1010.79 111.607 1013.77 112.211 1018.14 112.914C1017.56 115.681 1017.01 118.235 1016.31 121.142Z" fill="#144779"/>
<path d="M132.98 177.006C128.693 185.279 121.101 188.785 112.622 190.936C111.046 191.336 109.368 191.334 106.77 190.551C107.763 189.555 108.628 187.891 109.771 187.671C117.843 186.116 124.389 182.491 128.684 175.215C129.012 174.659 130.564 174.826 131.806 174.331C132.065 174.005 132.008 173.994 131.632 174.21C131.844 175.302 132.434 176.177 133.024 177.052C133.024 177.052 132.982 177.029 132.98 177.006Z" fill="#144779"/>
</svg>
